icons-dark/mimetypes/16/application-x-desktop.svg

<svg width="16" xmlns="http://www.w3.org/2000/svg" height="16" viewBox="0 0 16 16">
 <path fill="#6c7a89" d="m2 2v12h12v-12zm1 1h10v8h-10zm1 1v3h3v-2h-1l-.9-1zm-1 8h1v1h-1zm2 0h4v1h-4zm5 0h1v1h-1zm2 0h1v1h-1z"/>
</svg>

<?xml version="1.0" encoding="UTF-8" standalone="no"?>

<!-- Created with Inkscape (http://www.inkscape.org/) -->
<svg width="16" version="1.1" xmlns="http://www.w3.org/2000/svg" height="16" viewBox="0 0 16 16" xmlns:inkscape="http://www.inkscape.org/namespaces/inkscape">
 <defs id="defs4"/>
 <metadata id="metadata7"/>
 <path inkscape:label="Capa 1" inkscape:groupmode="layer" style="fill:#6c7a89" id="rect4154" d="M 2 2 L 2 14 L 14 14 L 14 2 L 2 2 z M 3 3 L 13 3 L 13 11 L 3 11 L 3 3 z M 4 4 L 4 7 L 7 7 L 7 5 L 6 5 L 5.0996094 4 L 4 4 z M 3 12 L 4 12 L 4 13 L 3 13 L 3 12 z M 5 12 L 9 12 L 9 13 L 5 13 L 5 12 z M 10 12 L 11 12 L 11 13 L 10 13 L 10 12 z M 12 12 L 13 12 L 13 13 L 12 13 L 12 12 z "/>
</svg>
